X:177
%%pagewidth 7.5in
%%vocalfont Baskerville10Pro 12
T:Thomas, You cannot. (Hawkins version)
M:6/8
L:1/8
K:D
%%score 1 2
V:1 clef-treble
V:2 clef-bass octave=-1
[V:1]D|FGA B2A & D6|d2c B2E & D6|FGF [CE]2D & D3 x3|D(d2d2) :||d|c2d e2d & A6-|
[V:2]z|DEF G2F|B2A G2F|A3 [A,G]3|[DF]3-[DF]2 :||z|A2B c2B|
[V:1]c>dc [^GB]2A & A3 x3|c>de e>dc & A6|c>dc [^GB]2A & A3 x3|F>=GF E2D & D3 x3|DdD DdA|F>GF [CE]2D & D2x4|D(d2d2)||
[V:2]A>BA E2A,|A>Bc c>BA|A>BA E2A,|B,3 [EG]2[B,B]|[B,B]3 [FA]3|[A,A]3[A,G]3|[DF]3-[DF]2||

